packages/tokens/icons/coveoIndex/size16Px.svg

<svg viewBox="0 0 16 16" fill="none" xmlns="http://www.w3.org/2000/svg" width="1em" height="1em"><rect x="4.46443" y="8" width="5" height="5" rx="0.5" transform="rotate(-45 4.46443 8)" stroke="currentColor"/><path d="M8 14V11M8 5L8 2M14 8H11M5 8H2M3 3L6 6M10 10L13 13M13 3L10 6M6 10L3 13" stroke="currentColor"/><path d="M3.5 2.5C3.5 3.05228 3.05228 3.5 2.5 3.5C1.94772 3.5 1.5 3.05228 1.5 2.5C1.5 1.94772 1.94772 1.5 2.5 1.5C3.05228 1.5 3.5 1.94772 3.5 2.5ZM3.5 13.5C3.5 14.0523 3.05228 14.5 2.5 14.5C1.94772 14.5 1.5 14.0523 1.5 13.5C1.5 12.9477 1.94772 12.5 2.5 12.5C3.05228 12.5 3.5 12.9477 3.5 13.5ZM14.5 2.5C14.5 3.05228 14.0523 3.5 13.5 3.5C12.9477 3.5 12.5 3.05228 12.5 2.5C12.5 1.94772 12.9477 1.5 13.5 1.5C14.0523 1.5 14.5 1.94772 14.5 2.5ZM8.5 2C8.5 2.27614 8.27614 2.5 8 2.5C7.72386 2.5 7.5 2.27614 7.5 2C7.5 1.72386 7.72386 1.5 8 1.5C8.27614 1.5 8.5 1.72386 8.5 2ZM2.5 8C2.5 8.27614 2.27614 8.5 2 8.5C1.72386 8.5 1.5 8.27614 1.5 8C1.5 7.72386 1.72386 7.5 2 7.5C2.27614 7.5 2.5 7.72386 2.5 8ZM14.5 8C14.5 8.27614 14.2761 8.5 14 8.5C13.7239 8.5 13.5 8.27614 13.5 8C13.5 7.72386 13.7239 7.5 14 7.5C14.2761 7.5 14.5 7.72386 14.5 8ZM8.5 14C8.5 14.2761 8.27614 14.5 8 14.5C7.72386 14.5 7.5 14.2761 7.5 14C7.5 13.7239 7.72386 13.5 8 13.5C8.27614 13.5 8.5 13.7239 8.5 14ZM14.5 13.5C14.5 14.0523 14.0523 14.5 13.5 14.5C12.9477 14.5 12.5 14.0523 12.5 13.5C12.5 12.9477 12.9477 12.5 13.5 12.5C14.0523 12.5 14.5 12.9477 14.5 13.5Z" stroke="currentColor"/></svg>

<svg xmlns="http://www.w3.org/2000/svg" fill="none" viewBox="0 0 16 16" width="1em" height="1em"><rect width="5" height="5" x="4.464" y="8" stroke="currentColor" rx=".5" transform="rotate(-45 4.464 8)"/><path stroke="currentColor" d="M8 14v-3m0-6V2m6 6h-3M5 8H2m1-5 3 3m4 4 3 3m0-10-3 3m-4 4-3 3m.5-10.5a1 1 0 1 1-2 0 1 1 0 0 1 2 0Zm0 11a1 1 0 1 1-2 0 1 1 0 0 1 2 0Zm11-11a1 1 0 1 1-2 0 1 1 0 0 1 2 0Zm-6-.5a.5.5 0 1 1-1 0 .5.5 0 0 1 1 0Zm-6 6a.5.5 0 1 1-1 0 .5.5 0 0 1 1 0Zm12 0a.5.5 0 1 1-1 0 .5.5 0 0 1 1 0Zm-6 6a.5.5 0 1 1-1 0 .5.5 0 0 1 1 0Zm6-.5a1 1 0 1 1-2 0 1 1 0 0 1 2 0Z"/></svg>
